nameplates/warden.svg

<svg width="1968" height="405" viewBox="0 0 1968 405" fill="none" xmlns="http://www.w3.org/2000/svg">
<g clip-path="url(#clip0_22600_446)">
<path d="M242.589 242.27C233.068 293.384 223.416 344.367 213.765 395.481C178.55 394.569 143.205 393.656 107.991 392.613C90.3838 285.43 73.0374 178.247 55.9519 71.0641C48.3873 70.8033 40.9531 70.5425 33.3885 70.4121C16.303 46.6806 9.52095 22.1668 0 0C47.6047 1.43432 130.815 2.86864 178.55 4.17257C177.898 27.6433 177.246 51.114 176.724 74.4543C168.638 74.1935 160.552 74.0631 152.466 73.8023C160.943 132.74 169.551 191.547 178.159 250.485C188.723 192.069 199.288 133.783 209.852 75.367C202.548 75.2366 195.114 74.9759 187.81 74.8455C188.463 51.3748 188.984 27.9041 189.636 4.56375C237.241 5.86768 284.976 6.91082 332.581 7.95396C332.059 31.4247 331.538 54.8954 331.016 78.2357C323.06 78.1053 315.235 77.8445 307.279 77.7141C315.887 136.521 324.625 195.328 333.233 254.266C343.537 195.85 353.84 137.434 364.013 79.018C356.709 78.8876 349.275 78.7572 341.972 78.4965C342.493 55.0258 343.015 31.5551 343.406 8.21475C383.707 9.12749 424.008 9.77946 464.309 10.5618C463.918 34.0325 463.527 57.5032 463.135 80.8435C455.44 80.7131 447.745 80.5827 440.05 80.4524C418.661 186.722 397.141 292.993 375.36 399.132C340.146 398.48 304.801 397.698 269.586 396.916C260.587 345.41 251.588 293.905 242.719 242.27H242.589Z" fill="white"/>
<path d="M579.995 285.169C561.084 284.908 542.303 284.647 523.391 284.387C520.783 298.078 518.174 311.769 515.566 325.46C524.435 325.591 533.304 325.721 542.303 325.852C541.912 351.148 541.52 376.444 541.129 401.74C495.611 401.088 450.093 400.306 404.706 399.393C405.227 374.097 405.619 348.801 406.14 323.504C415.531 323.635 425.052 323.896 434.442 324.026C458.962 219.712 483.221 115.267 507.219 10.8225C550.259 11.4745 593.299 12.1264 636.469 12.648C657.467 117.745 678.596 222.711 699.985 327.677C709.376 327.677 718.897 327.807 728.287 327.938C728.026 353.234 727.896 378.53 727.635 403.826C671.031 403.305 614.427 402.653 557.693 401.871C558.084 376.574 558.345 351.278 558.736 325.982C567.996 326.112 577.256 326.243 586.517 326.373C584.299 312.551 582.082 298.86 579.865 285.039L579.995 285.169ZM569.692 224.536C564.214 191.808 558.736 159.21 553.389 126.481C547.259 158.949 540.999 191.547 534.869 224.015C546.476 224.145 558.084 224.406 569.692 224.536Z" fill="white"/>
<path d="M995.004 115.267C995.004 158.688 972.441 189.461 931.357 201.457C963.442 209.28 978.31 236.663 982.875 274.607C985.092 292.732 987.309 310.856 989.526 328.981C995.787 328.981 1002.18 328.981 1008.44 328.981C1008.44 354.277 1008.44 379.573 1008.44 404.87C968.267 404.87 928.227 404.87 888.057 404.739C887.665 349.713 885.057 312.943 881.796 289.863C876.971 257.395 866.406 238.749 846.451 238.619C842.539 238.619 838.756 239.14 835.887 239.662C835.757 269.392 835.626 298.991 835.496 328.72C842.93 328.72 850.364 328.72 857.668 328.72C857.668 354.016 857.407 379.313 857.407 404.609C805.368 404.348 753.459 404.087 701.42 403.566C701.681 378.27 701.942 352.973 702.072 327.677C711.332 327.677 720.592 327.807 729.852 327.938C730.504 246.573 731.287 165.208 731.939 83.8426C722.809 83.8426 713.549 83.7122 704.42 83.5818C704.681 60.1111 704.811 36.6404 705.072 13.1697C755.155 13.6912 805.107 13.952 855.19 14.2128C950.269 14.604 994.874 46.2894 994.874 115.137L995.004 115.267ZM881.927 126.611C881.927 95.3171 873.84 84.7553 849.06 84.7553C845.017 84.7553 840.974 84.7553 836.93 84.7553C836.8 112.659 836.67 140.433 836.539 168.337C841.104 168.337 845.799 168.337 850.364 168.337C873.579 168.337 881.927 156.863 882.057 126.742L881.927 126.611Z" fill="white"/>
<path d="M1027.61 329.111C1036.87 329.111 1046.13 329.111 1055.39 329.111C1055.26 247.746 1055.13 166.381 1054.87 85.016C1045.74 85.016 1036.48 85.016 1027.35 85.016C1027.35 61.5453 1027.35 38.0746 1027.35 14.6039C1076.78 14.6039 1126.34 14.3431 1175.77 14.0823C1280.76 13.4303 1320.02 89.1886 1321.33 205.238C1322.63 323.896 1286.24 403.566 1183.6 404.348C1131.56 404.609 1079.65 404.869 1027.61 404.869C1027.61 379.573 1027.61 354.277 1027.61 328.981V329.111ZM1173.16 333.023C1199.9 332.893 1208.51 306.945 1208.38 272.912C1208.12 231.317 1207.86 189.721 1207.47 148.126C1207.2 112.398 1198.21 88.2758 1172.9 88.4062C1168.47 88.4062 1164.03 88.4062 1159.73 88.4062C1160.12 169.38 1160.64 250.354 1161.03 331.328C1164.95 332.371 1168.86 332.893 1173.29 332.893L1173.16 333.023Z" fill="white"/>
<path d="M1319.63 327.416C1328.89 327.416 1338.15 327.156 1347.41 327.156C1346.5 245.79 1345.58 164.425 1344.54 83.1906C1335.41 83.1906 1326.15 83.4514 1317.02 83.4514C1316.76 59.9807 1316.5 36.51 1316.24 13.0393C1412.23 11.9962 1508.35 10.5618 1604.34 8.60596C1605.39 62.067 1606.56 115.528 1607.61 169.119C1581.78 169.641 1555.96 170.163 1530.26 170.554C1529.74 140.563 1529.22 110.443 1528.7 80.4524C1502.22 80.974 1475.75 81.3651 1449.4 81.7563C1449.92 112.529 1450.31 143.302 1450.84 174.074C1458.27 174.074 1465.57 173.814 1473.01 173.683C1472.75 160.514 1472.62 147.344 1472.36 134.044C1487.88 133.783 1503.27 133.522 1518.79 133.261C1519.57 178.377 1520.35 223.363 1521.13 268.479C1505.61 268.74 1490.09 269 1474.57 269.261C1474.31 256.222 1474.18 243.313 1473.92 230.274C1466.49 230.274 1459.18 230.535 1451.75 230.665C1452.27 262.35 1452.66 294.036 1453.18 325.721C1479.79 325.33 1506.53 324.939 1533.13 324.417C1532.48 290.124 1531.96 255.961 1531.31 221.668C1557.13 221.146 1582.96 220.755 1608.78 220.233C1609.95 279.823 1611.26 339.282 1612.43 398.872C1515.13 400.827 1417.84 402.392 1320.54 403.435C1320.28 378.139 1320.02 352.843 1319.76 327.547L1319.63 327.416Z" fill="white"/>
<path d="M1624.43 322.592C1633.69 322.461 1642.95 322.201 1652.21 321.94C1650.38 240.575 1648.69 159.34 1646.86 77.9749C1637.73 78.2357 1628.47 78.3661 1619.34 78.4964C1618.82 55.0257 1618.43 31.555 1617.91 8.21472C1663.69 7.30198 1709.6 6.25883 1755.38 5.0853C1781.98 72.6288 1808.85 140.042 1835.85 207.455C1834.41 162.73 1832.98 118.136 1831.54 73.4111C1824.24 73.6719 1816.81 73.8023 1809.5 74.0631C1808.85 50.5924 1808.2 27.1217 1807.55 3.78137C1849.67 2.60783 1925.19 1.4343 1967.31 0.130371C1961.84 23.4707 1946.32 47.5933 1936.14 70.4121C1927.01 70.6729 1917.75 70.9337 1908.62 71.3248C1911.88 177.856 1915.15 284.517 1918.41 391.048C1881.1 392.222 1843.8 393.265 1806.5 394.308C1779.77 324.156 1753.16 253.875 1726.68 183.593C1727.86 229.231 1728.9 274.868 1730.07 320.375C1737.51 320.245 1744.94 319.984 1752.25 319.854C1752.9 345.15 1753.55 370.446 1754.2 395.742C1711.55 396.785 1668.77 397.828 1626.13 398.741C1625.6 373.445 1625.08 348.149 1624.56 322.853L1624.43 322.592Z" fill="white"/>
</g>
<defs>
<clipPath id="clip0_22600_446">
<rect width="1967.31" height="405" fill="white"/>
</clipPath>
</defs>
</svg>

<svg xmlns="http://www.w3.org/2000/svg" width="1968" height="405" fill="none"><g fill="#fff" clip-path="url(#a)"><path d="M242.589 242.27c-9.521 51.114-19.173 102.097-28.824 153.211-35.215-.912-70.56-1.825-105.774-2.868a68677 68677 0 0 1-52.04-321.549c-7.564-.26-14.998-.521-22.562-.652C16.303 46.681 9.52 22.167 0 0c47.605 1.434 130.815 2.869 178.55 4.173-.652 23.47-1.304 46.941-1.826 70.281-8.086-.26-16.172-.39-24.258-.652 8.477 58.938 17.085 117.745 25.693 176.683 10.564-58.416 21.129-116.702 31.693-175.118-7.304-.13-14.738-.391-22.042-.522.653-23.47 1.174-46.94 1.826-70.281 47.605 1.304 95.34 2.347 142.945 3.39-.522 23.47-1.043 46.941-1.565 70.282-7.956-.13-15.781-.392-23.737-.522 8.608 58.807 17.346 117.614 25.954 176.552 10.304-58.416 20.607-116.832 30.78-175.248-7.304-.13-14.738-.26-22.041-.522.521-23.47 1.043-46.94 1.434-70.281 40.301.912 80.602 1.564 120.903 2.347-.391 23.47-.782 46.941-1.174 70.282l-23.085-.392c-21.389 106.27-42.909 212.541-64.69 318.68-35.214-.652-70.559-1.434-105.774-2.216-8.999-51.506-17.998-103.011-26.867-154.646zm337.406 42.899c-18.911-.261-37.692-.522-56.604-.782l-7.825 41.073 26.737.392-1.174 75.888c-45.518-.652-91.036-1.434-136.423-2.347.521-25.296.913-50.592 1.434-75.889 9.391.131 18.912.392 28.302.522a64061 64061 0 0 0 72.777-313.203c43.04.652 86.08 1.303 129.25 1.825 20.998 105.097 42.127 210.063 63.516 315.029 9.391 0 18.912.13 28.302.261-.261 25.296-.391 50.592-.652 75.888a37104 37104 0 0 1-169.942-1.955c.391-25.297.652-50.593 1.043-75.889l27.781.391c-2.218-13.822-4.435-27.513-6.652-41.334zm-10.303-60.633c-5.478-32.728-10.956-65.326-16.303-98.055-6.13 32.468-12.39 65.066-18.52 97.534 11.607.13 23.215.391 34.823.521"/><path d="M995.004 115.267c0 43.421-22.563 74.194-63.647 86.19 32.085 7.823 46.953 35.206 51.518 73.15l6.651 54.374h18.914v75.889c-40.173 0-80.213 0-120.383-.131-.392-55.026-3-91.796-6.261-114.876-4.825-32.468-15.39-51.114-35.345-51.244-3.912 0-7.695.521-10.564 1.043l-.391 89.058h22.172c0 25.296-.261 50.593-.261 75.889-52.039-.261-103.948-.522-155.987-1.043.261-25.296.522-50.593.652-75.889 9.26 0 18.52.13 27.78.261.652-81.365 1.435-162.73 2.087-244.095-9.13 0-18.39-.13-27.519-.261.261-23.47.391-46.942.652-70.412 50.083.521 100.035.782 150.118 1.043 95.079.391 139.684 32.076 139.684 100.924zm-113.077 11.344c0-31.294-8.087-41.856-32.867-41.856h-12.13l-.391 83.582h13.825c23.215 0 31.563-11.474 31.693-41.595zm145.683 202.5h27.78c-.13-81.365-.26-162.73-.52-244.095h-27.52V14.604c49.43 0 98.99-.26 148.42-.522 104.99-.652 144.25 75.107 145.56 191.156 1.3 118.658-35.09 198.328-137.73 199.11-52.04.261-103.95.521-155.99.521v-75.888zm145.55 3.912c26.74-.13 35.35-26.078 35.22-60.111-.26-41.595-.52-83.191-.91-124.786-.27-35.728-9.26-59.85-34.57-59.72h-13.17c.39 80.974.91 161.948 1.3 242.922 3.92 1.043 7.83 1.565 12.26 1.565z"/><path d="M1319.63 327.416c9.26 0 18.52-.26 27.78-.26-.91-81.366-1.83-162.731-2.87-243.965-9.13 0-18.39.26-27.52.26l-.78-70.412c95.99-1.043 192.11-2.477 288.1-4.433 1.05 53.461 2.22 106.922 3.27 160.513-25.83.522-51.65 1.044-77.35 1.435l-1.56-90.102c-26.48.522-52.95.913-79.3 1.304.52 30.773.91 61.546 1.44 92.318 7.43 0 14.73-.26 22.17-.391-.26-13.169-.39-26.339-.65-39.639l46.43-.783 2.34 135.218-46.56.782c-.26-13.039-.39-25.948-.65-38.987-7.43 0-14.74.261-22.17.391.52 31.685.91 63.371 1.43 95.056 26.61-.391 53.35-.782 79.95-1.304-.65-34.293-1.17-68.456-1.82-102.749 25.82-.522 51.65-.913 77.47-1.435 1.17 59.59 2.48 119.049 3.65 178.639-97.3 1.955-194.59 3.52-291.89 4.563l-.78-75.888zm304.8-4.824c9.26-.131 18.52-.391 27.78-.652-1.83-81.365-3.52-162.6-5.35-243.965-9.13.26-18.39.391-27.52.521-.52-23.47-.91-46.941-1.43-70.281 45.78-.913 91.69-1.956 137.47-3.13 26.6 67.544 53.47 134.957 80.47 202.37-1.44-44.725-2.87-89.319-4.31-134.044-7.3.26-14.73.391-22.04.652-.65-23.47-1.3-46.941-1.95-70.282 42.12-1.173 117.64-2.347 159.76-3.65-5.47 23.34-20.99 47.462-31.17 70.281-9.13.26-18.39.522-27.52.913 3.26 106.531 6.53 213.192 9.79 319.723-37.31 1.174-74.61 2.217-111.91 3.26a60478 60478 0 0 1-79.82-210.715c1.18 45.638 2.22 91.275 3.39 136.782 7.44-.13 14.87-.391 22.18-.521l1.95 75.888c-42.65 1.043-85.43 2.086-128.07 2.999-.53-25.296-1.05-50.592-1.57-75.888z"/></g><defs><clipPath id="a"><path fill="#fff" d="M0 0h1967.31v405H0z"/></clipPath></defs></svg>
